MODULE Module1
        CONST robtarget Target_260:=[[80.948332684,314.540471365,497.082785793],[0.113860627,0.387853137,0.910588967,0.08621737],[1,-1,-3,0],[9E+09,9E+09,9E+09,9E+09,9E+09,9E+09]];
    CONST robtarget Target_270:=[[73.985725918,321.648510878,498.068291722],[0.109338199,0.387349218,0.9109147,0.090775281],[0,-1,-3,0],[9E+09,9E+09,9E+09,9E+09,9E+09,9E+09]];
    CONST robtarget Target_280:=[[66.972304353,328.624457386,499.52863884],[0.10481097,0.386829159,0.911202566,0.095329671],[0,-1,-3,0],[9E+09,9E+09,9E+09,9E+09,9E+09,9E+09]];
    CONST robtarget Target_290:=[[59.917672032,335.47417149,501.346435218],[0.10027924,0.386292994,0.911452541,0.09988024],[0,-1,-3,0],[9E+09,9E+09,9E+09,9E+09,9E+09,9E+09]];
    CONST robtarget Target_300:=[[52.823930905,342.205612028,503.434764492],[0.095743252,0.385740752,0.911664608,0.104426739],[0,-1,-3,0],[9E+09,9E+09,9E+09,9E+09,9E+09,9E+09]];
    CONST robtarget Target_310:=[[45.689131789,348.826632355,505.72687153],[0.091203227,0.385172457,0.911838756,0.10896895],[0,-1,-3,0],[9E+09,9E+09,9E+09,9E+09,9E+09,9E+09]];
    CONST robtarget Target_320:=[[38.509051995,355.344040611,508.169439806],[0.086659424,0.384588142,0.911974974,0.113506613],[0,-1,-3,0],[9E+09,9E+09,9E+09,9E+09,9E+09,9E+09]];
    CONST robtarget Target_330:=[[31.277730923,361.763547836,510.718228364],[0.082111969,0.383987824,0.912073258,0.118039601],[0,-1,-3,0],[9E+09,9E+09,9E+09,9E+09,9E+09,9E+09]];
    CONST robtarget Target_340:=[[23.98823035,368.08931411,513.334841379],[0.07756109,0.383371532,0.912133602,0.122567689],[0,-1,-3,0],[9E+09,9E+09,9E+09,9E+09,9E+09,9E+09]];
    CONST robtarget Target_350:=[[16.632567717,374.324085734,515.984515197],[0.073006981,0.382739291,0.912156004,0.12709068],[0,-1,-3,0],[9E+09,9E+09,9E+09,9E+09,9E+09,9E+09]];
    CONST robtarget Target_360:=[[9.201776542,380.469069196,518.634291102],[0.068449838,0.38209113,0.912140462,0.131608382],[1,-1,-3,0],[9E+09,9E+09,9E+09,9E+09,9E+09,9E+09]];
    CONST robtarget Target_370:=[[1.685826505,386.523788217,521.251442671],[0.063889852,0.381427076,0.912086977,0.136120605],[1,-1,-3,0],[9E+09,9E+09,9E+09,9E+09,9E+09,9E+09]];
    CONST robtarget Target_380:=[[-5.926428953,392.48576836,523.801927071],[0.059327253,0.380747161,0.911995553,0.140627121],[1,-1,-3,0],[9E+09,9E+09,9E+09,9E+09,9E+09,9E+09]];
    CONST robtarget Target_390:=[[-13.647645389,398.350303864,526.248822495],[0.054762173,0.380051408,0.911866192,0.145127802],[1,-1,-3,0],[9E+09,9E+09,9E+09,9E+09,9E+09,9E+09]];
    CONST robtarget Target_400:=[[-21.491773493,404.109515063,528.550262949],[0.050194855,0.379339851,0.911698903,0.149622406],[1,-1,-3,0],[9E+09,9E+09,9E+09,9E+09,9E+09,9E+09]];
    CONST robtarget Target_410:=[[-29.474389421,409.751521194,530.65704719],[0.045625507,0.378612525,0.911493693,0.15411073],[1,-1,-3,0],[9E+09,9E+09,9E+09,9E+09,9E+09,9E+09]];
    CONST robtarget Target_420:=[[-37.612476325,415.258771967,532.509289578],[0.04105435,0.377869465,0.911250574,0.158592557],[1,-1,-3,0],[9E+09,9E+09,9E+09,9E+09,9E+09,9E+09]];
    CONST robtarget Target_430:=[[-45.923757595,420.605510076,534.031826219],[0.036481621,0.37711071,0.910969563,0.163067653],[1,-1,-3,0],[9E+09,9E+09,9E+09,9E+09,9E+09,9E+09]];
    CONST robtarget Target_440:=[[-54.424807209,425.75371337,535.127817717],[0.031907606,0.376336312,0.910650679,0.167535743],[1,-1,-3,0],[9E+09,9E+09,9E+09,9E+09,9E+09,9E+09]];
    CONST robtarget Target_450:=[[-63.126595962,430.646693246,535.670125598],[0.027332642,0.375546327,0.910293957,0.171996496],[1,-1,-3,0],[9E+09,9E+09,9E+09,9E+09,9E+09,9E+09]];
    CONST robtarget Target_460:=[[-72.02439457,435.199166582,535.490938387],[0.022757196,0.374740845,0.909899443,0.176449462],[1,-1,-3,0],[9E+09,9E+09,9E+09,9E+09,9E+09,9E+09]];
    CONST robtarget Target_470:=[[-81.076961884,439.283652665,534.373847282],[0.018181904,0.373919984,0.909467215,0.180894027],[1,-1,-3,0],[9E+09,9E+09,9E+09,9E+09,9E+09,9E+09]];
    CONST robtarget Target_480:=[[-90.169212567,442.717984407,532.062747206],[0.013607577,0.373083905,0.908997384,0.185329408],[1,-1,-3,0],[9E+09,9E+09,9E+09,9E+09,9E+09,9E+09]];
    CONST robtarget Target_490:=[[-99.078700232,445.299699711,528.359719711],[0.009033789,0.372232544,0.908489942,0.189756028],[1,-1,-3,0],[9E+09,9E+09,9E+09,9E+09,9E+09,9E+09]];
    CONST robtarget Target_500:=[[-107.548322842,446.94330117,523.326208104],[0.00445927,0.371365668,0.907944756,0.194175117],[1,-1,-3,0],[9E+09,9E+09,9E+09,9E+09,9E+09,9E+09]];
    CONST robtarget Target_510:=[[-115.386022987,447.676064258,517.174120438],[0.000116408,-0.37048319,-0.907361759,-0.198587085],[1,-1,-3,0],[9E+09,9E+09,9E+09,9E+09,9E+09,9E+09]];
    CONST robtarget Target_520:=[[-122.501603931,447.598547321,510.15807234],[0.004693175,-0.369585113,-0.906740935,-0.20299186],[1,-1,-3,0],[9E+09,9E+09,9E+09,9E+09,9E+09,9E+09]];
    CONST robtarget Target_530:=[[-128.890927703,446.840127731,502.509269527],[0.009270674,-0.368671497,-0.906082307,-0.207389091],[1,-1,-3,0],[9E+09,9E+09,9E+09,9E+09,9E+09,9E+09]];
    CONST robtarget Target_540:=[[-134.599003186,445.525928379,494.40848402],[0.013848455,-0.367742422,-0.90538592,-0.211778343],[1,-1,-3,0],[9E+09,9E+09,9E+09,9E+09,9E+09,9E+09]];
    CONST robtarget Target_550:=[[-139.689772362,443.762435023,485.986713926],[0.018426119,-0.366797965,-0.904651821,-0.216159231],[1,-1,-3,0],[9E+09,9E+09,9E+09,9E+09,9E+09,9E+09]];
    CONST robtarget Target_560:=[[-144.228940412,441.635131332,477.335944358],[0.023003321,-0.365838194,-0.903880056,-0.220531421],[1,-1,-3,0],[9E+09,9E+09,9E+09,9E+09,9E+09,9E+09]];
    CONST robtarget Target_570:=[[-148.276451737,439.211069939,468.520271115],[0.027579777,-0.364863164,-0.903070666,-0.224894642],[1,-1,-3,0],[9E+09,9E+09,9E+09,9E+09,9E+09,9E+09]];
    CONST robtarget Target_580:=[[-151.884073791,436.542622475,459.584663029],[0.032155226,-0.36387293,-0.902223693,-0.229248642],[1,-1,-3,0],[9E+09,9E+09,9E+09,9E+09,9E+09,9E+09]];
    CONST robtarget Target_590:=[[-155.095357935,433.670901746,450.561047144],[0.036729433,-0.362867541,-0.901339178,-0.233593198],[1,-1,-3,0],[9E+09,9E+09,9E+09,9E+09,9E+09,9E+09]];
    CONST robtarget Target_600:=[[-157.946459955,430.628505731,441.472432552],[0.041302183,-0.361847044,-0.90041716,-0.237928106],[1,-1,-3,0],[9E+09,9E+09,9E+09,9E+09,9E+09,9E+09]];
    CONST robtarget Target_610:=[[-160.467166812,427.441616492,432.33570805],[0.045873262,-0.360811486,-0.899457682,-0.242253162],[1,-1,-3,0],[9E+09,9E+09,9E+09,9E+09,9E+09,9E+09]];
    CONST robtarget Target_620:=[[-162.681895928,424.131547791,423.163471816],[0.050442468,-0.359760912,-0.898460783,-0.246568176],[1,-1,-3,0],[9E+09,9E+09,9E+09,9E+09,9E+09,9E+09]];
    CONST robtarget Target_630:=[[-164.61054324,420.715903519,413.965300542],[0.055009604,-0.358695369,-0.897426507,-0.250872958],[1,-1,-3,0],[9E+09,9E+09,9E+09,9E+09,9E+09,9E+09]];
    CONST robtarget Target_640:=[[-166.269180102,417.209438695,404.748613426],[0.059574474,-0.357614899,-0.896354897,-0.255167327],[1,-1,-3,0],[9E+09,9E+09,9E+09,9E+09,9E+09,9E+09]];
    CONST robtarget Target_650:=[[-167.670601138,413.624720449,395.51930774],[0.06413688,-0.356519551,-0.895245999,-0.259451095],[1,-1,-3,0],[9E+09,9E+09,9E+09,9E+09,9E+09,9E+09]];
    CONST robtarget Target_660:=[[-168.824757792,409.97261417,386.282163112],[0.068696629,-0.355409371,-0.89409986,-0.263724084],[1,-1,-3,0],[9E+09,9E+09,9E+09,9E+09,9E+09,9E+09]];
    CONST robtarget Target_670:=[[-169.739074915,406.262684463,377.041194061],[0.073253528,-0.354284405,-0.892916529,-0.267986106],[1,-1,-3,0],[9E+09,9E+09,9E+09,9E+09,9E+09,9E+09]];
    CONST robtarget Target_680:=[[-170.418684692,402.503498822,367.799876322],[0.077807385,-0.353144701,-0.891696054,-0.272236988],[1,-1,-2,0],[9E+09,9E+09,9E+09,9E+09,9E+09,9E+09]];
    CONST robtarget Target_690:=[[-170.866577646,398.702890638,358.561359108],[0.082358008,-0.351990307,-0.890438488,-0.276476547],[1,-1,-2,0],[9E+09,9E+09,9E+09,9E+09,9E+09,9E+09]];
    CONST robtarget Target_700:=[[-171.083685387,394.868177899,349.328628335],[0.086905206,-0.350821273,-0.889143882,-0.280704608],[1,-1,-2,0],[9E+09,9E+09,9E+09,9E+09,9E+09,9E+09]];
    CONST robtarget Target_710:=[[-171.068895831,391.006361594,340.104660302],[0.091448788,-0.349637645,-0.887812292,-0.284920991],[1,-1,-2,0],[9E+09,9E+09,9E+09,9E+09,9E+09,9E+09]];
    CONST robtarget Target_720:=[[-170.819001464,387.124314408,330.892573943],[0.095988563,-0.348439474,-0.886443773,-0.289125519],[1,-1,-2,0],[9E+09,9E+09,9E+09,9E+09,9E+09,9E+09]];
    CONST robtarget Target_730:=[[-170.328576049,383.228970925,321.695792686],[0.100524339,-0.34722681,-0.885038384,-0.293318016],[1,-1,-2,0],[9E+09,9E+09,9E+09,9E+09,9E+09,9E+09]];
    CONST robtarget Target_740:=[[-169.589770569,379.327534031,312.518234831],[0.105055925,-0.345999707,-0.883596183,-0.297498303],[1,-1,-2,0],[9E+09,9E+09,9E+09,9E+09,9E+09,9E+09]];
    CONST robtarget Target_750:=[[-168.592013557,375.427712678,303.364550196],[0.109583129,-0.344758215,-0.882117233,-0.301666204],[1,-1,-2,0],[9E+09,9E+09,9E+09,9E+09,9E+09,9E+09]];
    CONST robtarget Target_760:=[[-167.321593453,371.538011318,294.240429362],[0.114105759,-0.343502386,-0.880601596,-0.305821541],[1,-1,-2,0],[9E+09,9E+09,9E+09,9E+09,9E+09,9E+09]];
    CONST robtarget Target_770:=[[-165.761091421,367.668099813,285.153025171],[0.118623617,-0.342232277,-0.879049338,-0.309964138],[1,-1,-2,0],[9E+09,9E+09,9E+09,9E+09,9E+09,9E+09]];
    CONST robtarget Target_780:=[[-163.88861966,363.829303244,276.111541243],[0.123136512,-0.340947941,-0.877460528,-0.314093813],[1,-1,-2,0],[9E+09,9E+09,9E+09,9E+09,9E+09,9E+09]];
    CONST robtarget Target_790:=[[-161.676810918,360.035283259,267.128102829],[0.127644237,-0.339649437,-0.875835237,-0.31821038],[1,-2,-2,0],[9E+09,9E+09,9E+09,9E+09,9E+09,9E+09]];
    CONST robtarget Target_800:=[[-159.091767364,356.302823532,258.218984615],[0.132146592,-0.338336825,-0.87417354,-0.322313656],[1,-2,-2,0],[9E+09,9E+09,9E+09,9E+09,9E+09,9E+09]];
    CONST robtarget Target_810:=[[-156.10098961,352.648078342,249.405254159],[0.136643398,-0.337010155,-0.872475505,-0.326403478],[1,-2,-2,0],[9E+09,9E+09,9E+09,9E+09,9E+09,9E+09]];
    CONST robtarget Target_820:=[[-152.679699788,349.084469895,240.711756551],[0.141134469,-0.335669485,-0.870741202,-0.330479677],[1,-2,-1,0],[9E+09,9E+09,9E+09,9E+09,9E+09,9E+09]];
    CONST robtarget Target_830:=[[-148.805250595,345.626693012,232.167095829],[0.14561961,-0.334314872,-0.868970709,-0.334542078],[1,-2,-1,0],[9E+09,9E+09,9E+09,9E+09,9E+09,9E+09]];
    CONST robtarget Target_840:=[[-144.457996806,342.290802636,223.803528407],[0.150098634,-0.332946374,-0.867164102,-0.33859051],[1,-2,-1,0],[9E+09,9E+09,9E+09,9E+09,9E+09,9E+09]];
    CONST robtarget Target_850:=[[-139.622829596,339.093873064,215.656498639],[0.154571353,-0.331564048,-0.865321456,-0.342624805],[1,-2,-1,0],[9E+09,9E+09,9E+09,9E+09,9E+09,9E+09]];
    CONST robtarget Target_860:=[[-134.290787496,336.053453296,207.763730725],[0.159037585,-0.330167952,-0.863442849,-0.346644798],[1,-2,-1,0],[9E+09,9E+09,9E+09,9E+09,9E+09,9E+09]];
    CONST robtarget Target_870:=[[-128.460510378,333.18680655,200.163803963],[0.16349716,-0.328758141,-0.861528354,-0.350650337],[1,-2,-1,0],[9E+09,9E+09,9E+09,9E+09,9E+09,9E+09]];
    CONST robtarget Target_880:=[[-122.139342056,330.510018584,192.89436352],[0.167949902,-0.327334668,-0.859578048,-0.354641262],[1,-2,-1,0],[9E+09,9E+09,9E+09,9E+09,9E+09,9E+09]];
    CONST robtarget Target_890:=[[-115.343728174,328.037021289,185.990001638],[0.17239564,-0.32589759,-0.857592005,-0.358617425],[1,-2,-1,0],[9E+09,9E+09,9E+09,9E+09,9E+09,9E+09]];
    CONST robtarget Target_900:=[[-108.098807455,325.778712319,179.480196005],[0.176834213,-0.324446959,-0.855570299,-0.362578676],[1,1,0,1],[9E+09,9E+09,9E+09,9E+09,9E+09,9E+09]];
    CONST robtarget Target_910:=[[-100.437164346,323.74230178,173.387593747],[0.181265457,-0.322982828,-0.853513002,-0.366524872],[1,1,0,1],[9E+09,9E+09,9E+09,9E+09,9E+09,9E+09]];
    CONST robtarget Target_920:=[[-92.39693696,321.930998419,167.726932332],[0.185689199,-0.321505253,-0.851420197,-0.370455858],[1,0,0,1],[9E+09,9E+09,9E+09,9E+09,9E+09,9E+09]];
    CONST robtarget Target_930:=[[-84.019514282,320.344053646,162.504684784],[0.19010527,-0.320014291,-0.849291959,-0.374371484],[1,0,0,1],[9E+09,9E+09,9E+09,9E+09,9E+09,9E+09]];
    CONST robtarget Target_940:=[[-75.347280963,318.97715005,157.719489462],[0.194513494,-0.318510001,-0.847128373,-0.378271594],[1,0,1,1],[9E+09,9E+09,9E+09,9E+09,9E+09,9E+09]];
    CONST robtarget Target_950:=[[-66.421633714,317.823014937,153.363139743],[0.198913692,-0.316992444,-0.844929526,-0.382156027],[1,0,1,1],[9E+09,9E+09,9E+09,9E+09,9E+09,9E+09]];
    CONST robtarget Target_960:=[[-57.281484862,316.872146937,149.421924154],[0.203305676,-0.315461682,-0.842695511,-0.386024618],[1,0,1,1],[9E+09,9E+09,9E+09,9E+09,9E+09,9E+09]];
    CONST robtarget Target_970:=[[-47.962259917,316.113541567,145.878061543],[0.207689264,-0.313917779,-0.840426416,-0.389877208],[1,0,1,1],[9E+09,9E+09,9E+09,9E+09,9E+09,9E+09]];
    CONST robtarget Target_980:=[[-38.495440917,315.535348371,142.711089819],[0.212064264,-0.312360802,-0.838122341,-0.393713625],[1,0,1,1],[9E+09,9E+09,9E+09,9E+09,9E+09,9E+09]];
    CONST robtarget Target_990:=[[-28.908401507,315.125403951,139.899032944],[0.216430495,-0.310790816,-0.835783379,-0.397533713],[1,0,1,1],[9E+09,9E+09,9E+09,9E+09,9E+09,9E+09]];
    CONST robtarget Target_1000:=[[-19.224610109,314.871644268,137.419368766],[0.220787766,-0.309207887,-0.833409632,-0.401337303],[1,0,1,1],[9E+09,9E+09,9E+09,9E+09,9E+09,9E+09]];
    CONST robtarget Target_1010:=[[-9.463907395,314.762391788,135.249729859],[0.22513589,-0.307612084,-0.831001201,-0.405124229],[1,0,1,1],[9E+09,9E+09,9E+09,9E+09,9E+09,9E+09]];
    CONST robtarget Target_1020:=[[0.357092371,314.786544408,133.368407792],[0.22947468,-0.306003476,-0.828558187,-0.408894333],[1,0,1,1],[9E+09,9E+09,9E+09,9E+09,9E+09,9E+09]];
    CONST robtarget Target_1030:=[[10.224578545,314.933684233,131.754681217],[0.233803947,-0.30438213,-0.826080697,-0.412647447],[1,0,1,1],[9E+09,9E+09,9E+09,9E+09,9E+09,9E+09]];
    CONST robtarget Target_1040:=[[20.127171361,315.194128286,130.389003455],[0.238123515,-0.302748114,-0.82356883,-0.416383421],[1,0,1,1],[9E+09,9E+09,9E+09,9E+09,9E+09,9E+09]];
    CONST robtarget Target_1050:=[[30.055501638,315.558936524,129.253103378],[0.242433197,-0.301101498,-0.821022696,-0.42010209],[1,0,1,1],[9E+09,9E+09,9E+09,9E+09,9E+09,9E+09]];
    CONST robtarget Target_1060:=[[40.001918866,316.019893785,128.330002316],[0.246732809,-0.299442351,-0.818442401,-0.423803298],[1,0,1,1],[9E+09,9E+09,9E+09,9E+09,9E+09,9E+09]];
    CONST robtarget Target_1070:=[[49.960188331,316.5694736,127.603992303],[0.251022169,-0.297770745,-0.815828056,-0.427486885],[1,0,1,1],[9E+09,9E+09,9E+09,9E+09,9E+09,9E+09]];
    CONST robtarget Target_1080:=[[59.925284192,317.200795032,127.060579756],[0.255301102,-0.296086745,-0.813179766,-0.431152704],[1,0,1,1],[9E+09,9E+09,9E+09,9E+09,9E+09,9E+09]];
    CONST robtarget Target_1090:=[[69.893127255,317.907569721,126.686417994],[0.259569424,-0.294390427,-0.810497645,-0.434800596],[1,0,1,1],[9E+09,9E+09,9E+09,9E+09,9E+09,9E+09]];
    CONST robtarget Target_1100:=[[79.860458319,318.684053646,126.469223628],[0.263826957,-0.292681859,-0.807781804,-0.438430409],[1,0,1,1],[9E+09,9E+09,9E+09,9E+09,9E+09,9E+09]];
    CONST robtarget Target_1110:=[[89.824684875,319.524997069,126.397694167],[0.268073522,-0.290961114,-0.805032358,-0.442041988],[1,0,1,1],[9E+09,9E+09,9E+09,9E+09,9E+09,9E+09]];
    CONST robtarget Target_1120:=[[99.783753383,320.425596607,126.461425311],[0.272308938,-0.289228266,-0.802249423,-0.445635183],[1,0,1,1],[9E+09,9E+09,9E+09,9E+09,9E+09,9E+09]];
    CONST robtarget Target_1130:=[[109.736092519,321.381455144,126.650831943],[0.276533035,-0.287483382,-0.799433111,-0.449209848],[1,0,1,1],[9E+09,9E+09,9E+09,9E+09,9E+09,9E+09]];
    CONST robtarget Target_1140:=[[119.680476557,322.388536487,126.957073019],[0.280745633,-0.285726538,-0.796583542,-0.452765829],[1,0,1,1],[9E+09,9E+09,9E+09,9E+09,9E+09,9E+09]];
    CONST robtarget Target_1150:=[[129.616000409,323.443132439,127.371982378],[0.284946556,-0.283957808,-0.793700834,-0.45630298],[1,0,1,1],[9E+09,9E+09,9E+09,9E+09,9E+09,9E+09]];
    CONST robtarget Target_1160:=[[139.542008824,324.541828079,127.888004582],[0.289135629,-0.282177264,-0.790785109,-0.459821151],[1,-1,1,1],[9E+09,9E+09,9E+09,9E+09,9E+09,9E+09]];
    CONST robtarget Target_1170:=[[149.458056239,325.68147233,128.49813659],[0.293312674,-0.280384982,-0.787836489,-0.463320195],[1,-1,1,1],[9E+09,9E+09,9E+09,9E+09,9E+09,9E+09]];
    CONST robtarget Target_1180:=[[159.363890989,326.859153682,129.195876242],[0.297477523,-0.278581035,-0.784855093,-0.466799971],[1,-1,1,1],[9E+09,9E+09,9E+09,9E+09,9E+09,9E+09]];
    CONST robtarget Target_1190:=[[169.259379791,328.072170907,129.975171244],[0.301630001,-0.276765498,-0.781841048,-0.47026033],[1,-1,1,1],[9E+09,9E+09,9E+09,9E+09,9E+09,9E+09]];
    CONST robtarget Target_1190_2:=[[-86.521580173,419.034421481,175.401756831],[0.429792742,0.773966541,-0.409795697,0.21982147],[1,0,-1,0],[9E+09,9E+09,9E+09,9E+09,9E+09,9E+09]];
    CONST robtarget Target_1180_2:=[[-76.624317659,417.712900847,174.856607263],[0.42553256,0.776437171,-0.411567781,0.216053978],[1,0,-1,0],[9E+09,9E+09,9E+09,9E+09,9E+09,9E+09]];
    CONST robtarget Target_1170_2:=[[-66.730155039,416.340799035,174.385206411],[0.421254682,0.778875509,-0.413322751,0.212277502],[1,0,-1,0],[9E+09,9E+09,9E+09,9E+09,9E+09,9E+09]];
    CONST robtarget Target_1160_2:=[[-56.840212003,414.914525091,173.993012844],[0.416959284,0.781281457,-0.415060531,0.208492197],[1,0,-1,0],[9E+09,9E+09,9E+09,9E+09,9E+09,9E+09]];
    CONST robtarget Target_1150_2:=[[-46.955798562,413.430240737,173.685889138],[0.412646546,0.783654913,-0.41678105,0.204698221],[1,0,-1,0],[9E+09,9E+09,9E+09,9E+09,9E+09,9E+09]];
    CONST robtarget Target_1140_2:=[[-37.078497944,411.883843533,173.470146694],[0.408316648,0.785995778,-0.418484236,0.200895733],[1,0,-1,0],[9E+09,9E+09,9E+09,9E+09,9E+09,9E+09]];
    CONST robtarget Target_1130_2:=[[-27.210190589,410.270938961,173.352591969],[0.403969768,0.788303957,-0.420170018,0.19708489],[1,0,-1,0],[9E+09,9E+09,9E+09,9E+09,9E+09,9E+09]];
    CONST robtarget Target_1120_2:=[[-17.353103313,408.586812838,173.340578454],[0.399606089,0.790579351,-0.421838327,0.19326585],[1,0,-1,0],[9E+09,9E+09,9E+09,9E+09,9E+09,9E+09]];
    CONST robtarget Target_1110_2:=[[-7.509889686,406.826405776,173.442063441],[0.395225791,0.792821868,-0.423489092,0.189438774],[1,0,-1,0],[9E+09,9E+09,9E+09,9E+09,9E+09,9E+09]];
    CONST robtarget Target_1100_2:=[[2.316334028,404.984276364,173.665670045],[0.390829056,0.795031413,-0.425122246,0.185603819],[0,0,-1,0],[9E+09,9E+09,9E+09,9E+09,9E+09,9E+09]];
    CONST robtarget Target_1090_2:=[[12.121841724,403.054580979,174.020752792],[0.386416067,0.797207895,-0.42673772,0.181761145],[0,0,-1,0],[9E+09,9E+09,9E+09,9E+09,9E+09,9E+09]];
    CONST robtarget Target_1080_2:=[[21.902228522,401.031036837,174.517468001],[0.381987009,0.799351223,-0.428335446,0.177910911],[0,0,-1,0],[9E+09,9E+09,9E+09,9E+09,9E+09,9E+09]];
    CONST robtarget Target_1070_2:=[[31.652271162,398.906895664,175.166846366],[0.377542065,0.801461308,-0.42991536,0.17405328],[0,-1,-1,0],[9E+09,9E+09,9E+09,9E+09,9E+09,9E+09]];
    CONST robtarget Target_1060_2:=[[41.365763194,396.674922163,175.980864848],[0.373081421,0.803538062,-0.431477394,0.17018841],[0,-1,-1,0],[9E+09,9E+09,9E+09,9E+09,9E+09,9E+09]];
    CONST robtarget Target_1050_2:=[[51.035376279,394.327366946,176.972520091],[0.368605259,0.805581399,-0.433021486,0.166316462],[0,-1,-1,0],[9E+09,9E+09,9E+09,9E+09,9E+09,9E+09]];
    CONST robtarget Target_1040_2:=[[60.652390275,391.855973585,178.155885123],[0.36411377,0.807591234,-0.434547568,0.162437598],[0,-1,-1,0],[9E+09,9E+09,9E+09,9E+09,9E+09,9E+09]];
    CONST robtarget Target_1030_2:=[[70.206479733,389.251982334,179.546156866],[0.359607138,0.809567483,-0.436055578,0.158551978],[0,-1,-1,0],[9E+09,9E+09,9E+09,9E+09,9E+09,9E+09]];
    CONST robtarget Target_1020_2:=[[79.685411321,386.506171832,181.159670927],[0.35508555,0.811510065,-0.437545454,0.154659765],[0,-1,-1,0],[9E+09,9E+09,9E+09,9E+09,9E+09,9E+09]];
    CONST robtarget Target_1010_2:=[[89.074758364,383.608921925,183.013881688],[0.350549195,0.813418898,-0.439017133,0.150761119],[0,-1,-1,0],[9E+09,9E+09,9E+09,9E+09,9E+09,9E+09]];
    CONST robtarget Target_1000_2:=[[98.357502353,380.550349809,185.127264572],[0.345998261,0.815293903,-0.440470556,0.146856204],[0,-1,-1,0],[9E+09,9E+09,9E+09,9E+09,9E+09,9E+09]];
    CONST robtarget Target_990_2:=[[107.51369555,377.320489396,187.519140845],[0.341432939,0.817135002,-0.44190566,0.142945181],[0,-1,-1,0],[9E+09,9E+09,9E+09,9E+09,9E+09,9E+09]];
    CONST robtarget Target_980_2:=[[116.520097128,373.909563629,190.209374843],[0.336853417,0.818942118,-0.443322386,0.139028214],[0,-1,-1,0],[9E+09,9E+09,9E+09,9E+09,9E+09,9E+09]];
    CONST robtarget Target_970_2:=[[125.349859241,370.308358153,193.217912596],[0.332259887,0.820715177,-0.444720675,0.135105464],[0,-1,-1,0],[9E+09,9E+09,9E+09,9E+09,9E+09,9E+09]];
    CONST robtarget Target_960_2:=[[133.972367486,366.508690038,196.564145053],[0.327652538,0.822454105,-0.446100469,0.131177097],[0,-1,-1,0],[9E+09,9E+09,9E+09,9E+09,9E+09,9E+09]];
    CONST robtarget Target_950_2:=[[142.353198323,362.504022552,200.266031616],[0.323031564,0.824158828,-0.447461713,0.127243273],[0,-1,-1,0],[9E+09,9E+09,9E+09,9E+09,9E+09,9E+09]];
    CONST robtarget Target_940_2:=[[150.454472419,358.290132421,204.339049848],[0.318397154,0.825829277,-0.448804346,0.123304158],[0,-1,-1,0],[9E+09,9E+09,9E+09,9E+09,9E+09,9E+09]];
    CONST robtarget Target_930_2:=[[158.235532246,353.865856852,208.79494977],[0.313749505,0.827465381,-0.450128316,0.119359916],[0,-1,-1,0],[9E+09,9E+09,9E+09,9E+09,9E+09,9E+09]];
    CONST robtarget Target_920_2:=[[165.654166105,349.233769734,213.640474972],[0.309088807,0.829067074,-0.451433565,0.115410708],[0,-1,-1,0],[9E+09,9E+09,9E+09,9E+09,9E+09,9E+09]];
    CONST robtarget Target_910_2:=[[172.66830439,344.400711858,218.876177372],[0.304415255,0.830634288,-0.452720041,0.111456702],[0,-1,-1,0],[9E+09,9E+09,9E+09,9E+09,9E+09,9E+09]];
    CONST robtarget Target_900_2:=[[179.238139623,339.37802384,224.495555931],[0.299729042,0.832166958,-0.453987689,0.107498062],[0,-1,-1,0],[9E+09,9E+09,9E+09,9E+09,9E+09,9E+09]];
    CONST robtarget Target_890_2:=[[185.328423229,334.181395571,230.484704888],[0.295030366,0.83366502,-0.455236457,0.103534949],[0,-1,-1,0],[9E+09,9E+09,9E+09,9E+09,9E+09,9E+09]];
    CONST robtarget Target_880_2:=[[190.910681221,328.830238441,236.82267063],[0.290319419,0.835128413,-0.456466293,0.099567532],[0,-1,-1,0],[9E+09,9E+09,9E+09,9E+09,9E+09,9E+09]];
    CONST robtarget Target_870_2:=[[195.964906088,323.346699126,243.482455513],[0.285596399,0.836557074,-0.457677145,0.095595972],[0,-1,-1,0],[9E+09,9E+09,9E+09,9E+09,9E+09,9E+09]];
    CONST robtarget Target_860_2:=[[200.480508193,317.754409362,250.432586047],[0.280861502,0.837950945,-0.458868964,0.091620439],[0,-1,-1,0],[9E+09,9E+09,9E+09,9E+09,9E+09,9E+09]];
    CONST robtarget Target_850_2:=[[204.456382754,312.077180722,257.638979536],[0.276114924,0.839309968,-0.4600417,0.087641094],[0,-1,-1,0],[9E+09,9E+09,9E+09,9E+09,9E+09,9E+09]];
    CONST robtarget Target_840_2:=[[207.900171087,306.337810917,265.066849408],[0.271356863,0.840634085,-0.461195305,0.083658104],[0,-1,-1,0],[9E+09,9E+09,9E+09,9E+09,9E+09,9E+09]];
    CONST robtarget Target_830_2:=[[210.826879882,300.557214213,272.682301956],[0.266587516,0.841923245,-0.462329727,0.079671636],[0,-1,-1,0],[9E+09,9E+09,9E+09,9E+09,9E+09,9E+09]];
    CONST robtarget Target_820_2:=[[213.257213041,294.753833001,280.453598605],[0.261807085,0.843177389,-0.463444925,0.075681853],[0,-1,-1,0],[9E+09,9E+09,9E+09,9E+09,9E+09,9E+09]];
    CONST robtarget Target_810_2:=[[215.215832892,288.943386303,288.35194953],[0.257015765,0.844396468,-0.464540847,0.071688925],[0,-1,-1,0],[9E+09,9E+09,9E+09,9E+09,9E+09,9E+09]];
    CONST robtarget Target_800_2:=[[216.729769499,283.138869454,296.351908194],[0.252213755,0.845580431,-0.465617452,0.067693015],[0,-1,-1,0],[9E+09,9E+09,9E+09,9E+09,9E+09,9E+09]];
    CONST robtarget Target_790_2:=[[217.827597545,277.350848138,304.431492092],[0.247401257,0.846729229,-0.466674692,0.063694289],[0,-1,-1,0],[9E+09,9E+09,9E+09,9E+09,9E+09,9E+09]];
    CONST robtarget Target_780_2:=[[218.545866752,271.589779299,312.572930937],[0.24257847,0.847842813,-0.467712525,0.059692914],[0,-1,-1,0],[9E+09,9E+09,9E+09,9E+09,9E+09,9E+09]];
    CONST robtarget Target_770_2:=[[218.922408643,265.865505456,320.763281748],[0.237745597,0.848921138,-0.468730906,0.055689058],[0,-1,-1,0],[9E+09,9E+09,9E+09,9E+09,9E+09,9E+09]];
    CONST robtarget Target_760_2:=[[218.987746473,260.185900323,328.993112431],[0.232902835,0.849964157,-0.469729795,0.051682884],[0,-1,-1,0],[9E+09,9E+09,9E+09,9E+09,9E+09,9E+09]];
    CONST robtarget Target_750_2:=[[218.766371792,254.557552509,337.255437712],[0.228050386,0.850971829,-0.470709149,0.047674563],[0,-1,-1,0],[9E+09,9E+09,9E+09,9E+09,9E+09,9E+09]];
    CONST robtarget Target_740_2:=[[218.277937662,248.986298438,345.544987049],[0.223188454,0.851944112,-0.471668926,0.043664257],[0,-1,-1,0],[9E+09,9E+09,9E+09,9E+09,9E+09,9E+09]];
    CONST robtarget Target_730_2:=[[217.538148651,243.477589554,353.857715254],[0.218317241,0.852880965,-0.472609088,0.039652137],[0,-1,-1,0],[9E+09,9E+09,9E+09,9E+09,9E+09,9E+09]];
    CONST robtarget Target_720_2:=[[216.559424103,238.036767735,362.190455476],[0.213436946,0.853782348,-0.473529597,0.035638367],[0,-1,-1,0],[9E+09,9E+09,9E+09,9E+09,9E+09,9E+09]];
    CONST robtarget Target_710_2:=[[215.351390893,232.669284057,370.540667891],[0.208547778,0.854648225,-0.474430411,0.031623115],[0,-1,-1,0],[9E+09,9E+09,9E+09,9E+09,9E+09,9E+09]];
    CONST robtarget Target_700_2:=[[213.921245508,227.380886905,378.906250352],[0.203649936,0.855478558,-0.475311496,0.027606548],[0,-1,-1,0],[9E+09,9E+09,9E+09,9E+09,9E+09,9E+09]];
    CONST robtarget Target_690_2:=[[212.274013541,222.177797405,387.285388827],[0.198743624,0.856273315,-0.476172814,0.023588832],[0,-1,-1,0],[9E+09,9E+09,9E+09,9E+09,9E+09,9E+09]];
    CONST robtarget Target_680_2:=[[210.412725706,217.066885773,395.676432914],[0.193829047,0.857032462,-0.477014328,0.019570136],[0,-1,-1,0],[9E+09,9E+09,9E+09,9E+09,9E+09,9E+09]];
    CONST robtarget Target_670_2:=[[208.338523976,212.055863416,404.077780532],[0.188906409,0.857755967,-0.477836005,0.015550625],[0,-1,-1,0],[9E+09,9E+09,9E+09,9E+09,9E+09,9E+09]];
    CONST robtarget Target_660_2:=[[206.050705728,207.153502135,412.48776298],[0.183975916,0.8584438,-0.47863781,0.011530469],[0,-1,-1,0],[9E+09,9E+09,9E+09,9E+09,9E+09,9E+09]];
    CONST robtarget Target_650_2:=[[203.546708458,202.369892078,420.904524307],[0.179037771,0.859095933,-0.479419709,0.007509832],[0,-1,-1,0],[9E+09,9E+09,9E+09,9E+09,9E+09,9E+09]];
    CONST robtarget Target_640_2:=[[200.822042504,197.716768315,429.32586054],[0.17409218,0.859712337,-0.480181671,0.003488883],[0,-1,-1,0],[9E+09,9E+09,9E+09,9E+09,9E+09,9E+09]];
    CONST robtarget Target_630_2:=[[197.870154998,193.207900331,437.749052504],[0.169139349,0.860292989,-0.480923663,-0.00053221],[0,-1,-1,0],[9E+09,9E+09,9E+09,9E+09,9E+09,9E+09]];
    CONST robtarget Target_620_2:=[[194.682245368,188.859617774,446.170592269],[0.164179484,0.860837864,-0.481645655,-0.004553281],[0,-1,-1,0],[9E+09,9E+09,9E+09,9E+09,9E+09,9E+09]];
    CONST robtarget Target_610_2:=[[191.246992583,184.691456926,454.585874252],[0.159212792,0.861346938,-0.482347617,-0.008574164],[0,-1,-1,0],[9E+09,9E+09,9E+09,9E+09,9E+09,9E+09]];
    CONST robtarget Target_600_2:=[[187.55022859,180.727043816,462.988690766],[0.154239478,0.861820191,-0.483029518,-0.01259469],[0,-1,-1,0],[9E+09,9E+09,9E+09,9E+09,9E+09,9E+09]];
    CONST robtarget Target_590_2:=[[183.574530788,176.995246482,471.370539434],[0.149259751,0.862257603,-0.483691332,-0.016614691],[0,-1,-1,0],[9E+09,9E+09,9E+09,9E+09,9E+09,9E+09]];
    CONST robtarget Target_580_2:=[[179.298765295,173.531720429,479.719586456],[0.144273815,0.862659156,-0.484333032,-0.020634003],[0,-1,-1,0],[9E+09,9E+09,9E+09,9E+09,9E+09,9E+09]];
    CONST robtarget Target_570_2:=[[174.697612147,170.380961633,488.019149657],[0.139281879,0.863024833,-0.484954588,-0.024652454],[0,-1,-1,0],[9E+09,9E+09,9E+09,9E+09,9E+09,9E+09]];
    CONST robtarget Target_560_2:=[[169.741253452,167.599059859,496.24533026],[0.134284151,0.86335462,-0.485555976,-0.028669883],[0,-1,-1,0],[9E+09,9E+09,9E+09,9E+09,9E+09,9E+09]];
    CONST robtarget Target_550_2:=[[164.395491439,165.2572426,504.363458253],[0.12928084,0.863648501,-0.486137172,-0.032686118],[0,-1,-1,0],[9E+09,9E+09,9E+09,9E+09,9E+09,9E+09]];
    CONST robtarget Target_540_2:=[[158.622965818,163.446180425,512.322732899],[0.12427215,0.863906466,-0.486698149,-0.036700994],[0,0,-1,0],[9E+09,9E+09,9E+09,9E+09,9E+09,9E+09]];
    CONST robtarget Target_530_2:=[[152.386877706,162.280447248,520.048290659],[0.119258293,0.864128502,-0.487238887,-0.040714344],[0,0,-1,0],[9E+09,9E+09,9E+09,9E+09,9E+09,9E+09]];
    CONST robtarget Target_520_2:=[[145.659448459,161.90093084,527.430736462],[0.114239477,0.864314603,-0.48775936,-0.044726],[0,0,-1,0],[9E+09,9E+09,9E+09,9E+09,9E+09,9E+09]];
    CONST robtarget Target_510_2:=[[138.438386068,162.469954716,534.315131987],[0.109215909,0.864464758,-0.488259551,-0.048735797],[0,0,-1,0],[9E+09,9E+09,9E+09,9E+09,9E+09,9E+09]];
    CONST robtarget Target_500_2:=[[130.772332949,164.149786685,540.497725462],[0.104187799,0.864578963,-0.488739435,-0.052743566],[0,0,-1,0],[9E+09,9E+09,9E+09,9E+09,9E+09,9E+09]];
    CONST robtarget Target_490_2:=[[122.786599069,167.05678665,545.746494614],[0.099155357,0.864657212,-0.489198994,-0.056749142],[0,0,-1,0],[9E+09,9E+09,9E+09,9E+09,9E+09,9E+09]];
    CONST robtarget Target_480_2:=[[114.683700488,171.203443642,549.858052393],[0.094118791,0.864699503,-0.489638208,-0.060752358],[0,0,-1,0],[9E+09,9E+09,9E+09,9E+09,9E+09,9E+09]];
    CONST robtarget Target_470_2:=[[106.692430165,176.451682578,552.756401448],[0.08907831,0.864705831,-0.490057061,-0.064753049],[0,0,-1,0],[9E+09,9E+09,9E+09,9E+09,9E+09,9E+09]];
    CONST robtarget Target_460_2:=[[98.96536562,182.516029415,554.599243015],[0.084034125,0.8646762,-0.490455532,-0.068751045],[0,0,-1,0],[9E+09,9E+09,9E+09,9E+09,9E+09,9E+09]];
    CONST robtarget Target_450_2:=[[91.553987285,189.148335553,555.605189375],[0.078986446,0.864610609,-0.490833606,-0.072746182],[0,0,-1,0],[9E+09,9E+09,9E+09,9E+09,9E+09,9E+09]];
    CONST robtarget Target_440_2:=[[84.454628947,196.178769034,555.96378894],[0.073935481,0.864509061,-0.491191268,-0.076738294],[0,0,-1,0],[9E+09,9E+09,9E+09,9E+09,9E+09,9E+09]];
    CONST robtarget Target_430_2:=[[77.641679241,203.495691434,555.824498015],[0.068881442,0.86437156,-0.491528503,-0.080727215],[0,0,-1,0],[9E+09,9E+09,9E+09,9E+09,9E+09,9E+09]];
    CONST robtarget Target_420_2:=[[71.083749731,211.025875472,555.301993015],[0.063824539,0.864198112,-0.491845297,-0.084712778],[0,0,-1,0],[9E+09,9E+09,9E+09,9E+09,9E+09,9E+09]];
    CONST robtarget Target_410_2:=[[64.750342245,218.720602628,554.484561063],[0.05876498,0.863988725,-0.492141635,-0.088694819],[0,0,-1,0],[9E+09,9E+09,9E+09,9E+09,9E+09,9E+09]];
    CONST robtarget Target_400_2:=[[58.614071066,226.546901039,553.441412325],[0.053702978,0.863743407,-0.492417507,-0.092673171],[0,0,-1,0],[9E+09,9E+09,9E+09,9E+09,9E+09,9E+09]];
    CONST robtarget Target_390_2:=[[52.651126339,234.48207385,552.228230494],[0.048638743,0.863462167,-0.492672901,-0.096647669],[0,0,-1,0],[9E+09,9E+09,9E+09,9E+09,9E+09,9E+09]];
    CONST robtarget Target_380_2:=[[46.841038647,242.510309045,550.891227198],[0.043572485,0.863145019,-0.492907804,-0.100618148],[0,0,-1,0],[9E+09,9E+09,9E+09,9E+09,9E+09,9E+09]];
    CONST robtarget Target_370_2:=[[41.166296279,250.620450571,549.470130952],[0.038504414,0.862791974,-0.49312221,-0.104584441],[0,0,-1,0],[9E+09,9E+09,9E+09,9E+09,9E+09,9E+09]];
    CONST robtarget Target_360_2:=[[35.611697239,258.804880489,548.000387396],[0.033434743,0.862403048,-0.493316109,-0.108546386],[0,0,-1,0],[9E+09,9E+09,9E+09,9E+09,9E+09,9E+09]];
    CONST robtarget Target_350_2:=[[30.164211936,267.058205489,546.515018114],[0.02836368,0.861978257,-0.493489491,-0.112503816],[0,0,-1,0],[9E+09,9E+09,9E+09,9E+09,9E+09,9E+09]];
    CONST robtarget Target_340_2:=[[24.812468792,275.37686457,545.04611453],[0.02329144,0.861517618,-0.49364235,-0.116456568],[0,0,-1,0],[9E+09,9E+09,9E+09,9E+09,9E+09,9E+09]];
    CONST robtarget Target_330_2:=[[19.546547504,283.758571433,543.626303179],[0.018218229,0.861021152,-0.49377468,-0.120404478],[0,0,-1,0],[9E+09,9E+09,9E+09,9E+09,9E+09,9E+09]];
    CONST robtarget Target_320_2:=[[14.357789324,292.201923473,542.290265955],[0.013144261,0.860488877,-0.493886475,-0.124347379],[0,0,-1,0],[9E+09,9E+09,9E+09,9E+09,9E+09,9E+09]];
    CONST robtarget Target_310_2:=[[9.238734849,300.705945045,541.076513767],[0.008069746,0.859920817,-0.493977731,-0.128285109],[0,0,-1,0],[9E+09,9E+09,9E+09,9E+09,9E+09,9E+09]];
    CONST robtarget Target_300_2:=[[4.182988889,309.269846102,540.029587429],[0.002994897,0.859316995,-0.494048443,-0.132217504],[0,0,-1,0],[9E+09,9E+09,9E+09,9E+09,9E+09,9E+09]];
    CONST robtarget Target_290_2:=[[-0.814319051,317.891823292,539.20315127],[0.002080078,-0.858677437,0.494098609,0.1361444],[0,0,-1,0],[9E+09,9E+09,9E+09,9E+09,9E+09,9E+09]];
    CONST robtarget Target_280_2:=[[-5.756241245,326.568102454,538.664273624],[0.007154966,-0.858002167,0.494128227,0.140065636],[0,0,-1,0],[9E+09,9E+09,9E+09,9E+09,9E+09,9E+09]];
    CONST robtarget Target_270_2:=[[-10.642863702,335.290396669,538.499865568],[0.012229557,-0.857291216,0.494137296,0.143981045],[0,0,-1,0],[9E+09,9E+09,9E+09,9E+09,9E+09,9E+09]];
    CONST robtarget Target_260_2:=[[-15.469044275,344.041092835,538.826420818],[0.017303638,-0.856544613,0.494125814,0.147890467],[-1,0,-2,0],[9E+09,9E+09,9E+09,9E+09,9E+09,9E+09]];
    CONST robtarget Target_550_4:=[[139.689772362,356.237564977,485.986713926],[0.216159231,0.904651821,-0.366797965,0.018426119],[0,-1,-1,0],[9E+09,9E+09,9E+09,9E+09,9E+09,9E+09]];
    CONST robtarget Target_560_4:=[[144.228940412,358.364868668,477.335944358],[0.220531421,0.903880056,-0.365838194,0.023003321],[0,-1,-1,0],[9E+09,9E+09,9E+09,9E+09,9E+09,9E+09]];
    CONST robtarget Target_570_4:=[[148.276451737,360.788930061,468.520271115],[0.224894642,0.903070666,-0.364863164,0.027579777],[0,-1,-1,0],[9E+09,9E+09,9E+09,9E+09,9E+09,9E+09]];
    CONST robtarget Target_580_4:=[[151.884073791,363.457377525,459.584663029],[0.229248642,0.902223693,-0.36387293,0.032155226],[0,-1,-1,0],[9E+09,9E+09,9E+09,9E+09,9E+09,9E+09]];
    CONST robtarget Target_590_4:=[[155.095357935,366.329098254,450.561047144],[0.233593198,0.901339178,-0.362867541,0.036729433],[0,-1,-1,0],[9E+09,9E+09,9E+09,9E+09,9E+09,9E+09]];
    CONST robtarget Target_600_4:=[[157.946459955,369.371494269,441.472432552],[0.237928106,0.90041716,-0.361847044,0.041302183],[0,-1,-1,0],[9E+09,9E+09,9E+09,9E+09,9E+09,9E+09]];
    CONST robtarget Target_610_4:=[[160.467166812,372.558383508,432.33570805],[0.242253162,0.899457682,-0.360811486,0.045873262],[0,-1,-1,0],[9E+09,9E+09,9E+09,9E+09,9E+09,9E+09]];
    CONST robtarget Target_620_4:=[[162.681895928,375.868452209,423.163471816],[0.246568176,0.898460783,-0.359760912,0.050442468],[0,-1,-1,0],[9E+09,9E+09,9E+09,9E+09,9E+09,9E+09]];
    CONST robtarget Target_630_4:=[[164.61054324,379.284096481,413.965300542],[0.250872958,0.897426507,-0.358695369,0.055009604],[0,-1,-1,0],[9E+09,9E+09,9E+09,9E+09,9E+09,9E+09]];
    CONST robtarget Target_640_4:=[[166.269180102,382.790561305,404.748613426],[0.255167327,0.896354897,-0.357614899,0.059574474],[0,-1,-1,0],[9E+09,9E+09,9E+09,9E+09,9E+09,9E+09]];
    CONST robtarget Target_650_4:=[[167.670601138,386.375279551,395.51930774],[0.259451095,0.895245999,-0.356519551,0.06413688],[0,-1,-1,0],[9E+09,9E+09,9E+09,9E+09,9E+09,9E+09]];
    CONST robtarget Target_660_4:=[[168.824757792,390.02738583,386.282163112],[0.263724084,0.89409986,-0.355409371,0.068696629],[0,-1,-1,0],[9E+09,9E+09,9E+09,9E+09,9E+09,9E+09]];
    CONST robtarget Target_670_4:=[[169.739074915,393.737315537,377.041194061],[0.267986106,0.892916529,-0.354284405,0.073253528],[0,-1,-1,0],[9E+09,9E+09,9E+09,9E+09,9E+09,9E+09]];
    CONST robtarget Target_680_4:=[[170.418684692,397.496501178,367.799876322],[0.272236988,0.891696054,-0.353144701,0.077807385],[0,-1,-1,0],[9E+09,9E+09,9E+09,9E+09,9E+09,9E+09]];
    CONST robtarget Target_690_4:=[[170.866577646,401.297109362,358.561359108],[0.276476547,0.890438488,-0.351990307,0.082358008],[0,-1,-1,0],[9E+09,9E+09,9E+09,9E+09,9E+09,9E+09]];
    CONST robtarget Target_700_4:=[[171.083685387,405.131822101,349.328628335],[0.280704608,0.889143882,-0.350821273,0.086905206],[0,-1,-1,0],[9E+09,9E+09,9E+09,9E+09,9E+09,9E+09]];
    CONST robtarget Target_710_4:=[[171.068895831,408.993638406,340.104660302],[0.284920991,0.887812292,-0.349637645,0.091448788],[0,-1,-1,0],[9E+09,9E+09,9E+09,9E+09,9E+09,9E+09]];
    CONST robtarget Target_720_4:=[[170.819001464,412.875685592,330.892573943],[0.289125519,0.886443773,-0.348439474,0.095988563],[0,-1,-1,0],[9E+09,9E+09,9E+09,9E+09,9E+09,9E+09]];
    CONST robtarget Target_730_4:=[[170.328576049,416.771029075,321.695792686],[0.293318016,0.885038384,-0.34722681,0.100524339],[0,-1,-1,0],[9E+09,9E+09,9E+09,9E+09,9E+09,9E+09]];
    CONST robtarget Target_740_4:=[[169.589770569,420.672465969,312.518234831],[0.297498303,0.883596183,-0.345999707,0.105055925],[0,-1,-1,0],[9E+09,9E+09,9E+09,9E+09,9E+09,9E+09]];
    CONST robtarget Target_750_4:=[[168.592013557,424.572287322,303.364550196],[0.301666204,0.882117233,-0.344758215,0.109583129],[0,-1,-1,0],[9E+09,9E+09,9E+09,9E+09,9E+09,9E+09]];
    CONST robtarget Target_760_4:=[[167.321593453,428.461988682,294.240429362],[0.305821541,0.880601596,-0.343502386,0.114105759],[0,-1,-1,0],[9E+09,9E+09,9E+09,9E+09,9E+09,9E+09]];
    CONST robtarget Target_770_4:=[[165.761091421,432.331900187,285.153025171],[0.309964138,0.879049338,-0.342232277,0.118623617],[0,-1,-1,0],[9E+09,9E+09,9E+09,9E+09,9E+09,9E+09]];
    CONST robtarget Target_780_4:=[[163.88861966,436.170696756,276.111541243],[0.314093813,0.877460528,-0.340947941,0.123136512],[0,-1,-1,0],[9E+09,9E+09,9E+09,9E+09,9E+09,9E+09]];
    CONST robtarget Target_790_4:=[[161.676810918,439.964716741,267.128102829],[0.31821038,0.875835237,-0.339649437,0.127644237],[0,-1,-1,0],[9E+09,9E+09,9E+09,9E+09,9E+09,9E+09]];
    CONST robtarget Target_800_4:=[[159.091767364,443.697176468,258.218984615],[0.322313656,0.87417354,-0.338336825,0.132146592],[0,-1,-1,0],[9E+09,9E+09,9E+09,9E+09,9E+09,9E+09]];
    CONST robtarget Target_810_4:=[[156.10098961,447.351921658,249.405254159],[0.326403478,0.872475505,-0.337010155,0.136643398],[0,-1,-1,0],[9E+09,9E+09,9E+09,9E+09,9E+09,9E+09]];
    CONST robtarget Target_820_4:=[[152.679699788,450.915530105,240.711756551],[0.330479677,0.870741202,-0.335669485,0.141134469],[0,-1,-1,0],[9E+09,9E+09,9E+09,9E+09,9E+09,9E+09]];
    CONST robtarget Target_830_4:=[[148.805250595,454.373306988,232.167095829],[0.334542078,0.868970709,-0.334314872,0.14561961],[0,-1,-1,0],[9E+09,9E+09,9E+09,9E+09,9E+09,9E+09]];
    CONST robtarget Target_840_4:=[[144.457996806,457.709197364,223.803528407],[0.33859051,0.867164102,-0.332946374,0.150098634],[0,-1,-1,0],[9E+09,9E+09,9E+09,9E+09,9E+09,9E+09]];
    CONST robtarget Target_850_4:=[[139.622829596,460.906126936,215.656498639],[0.342624805,0.865321456,-0.331564048,0.154571353],[0,-1,-1,0],[9E+09,9E+09,9E+09,9E+09,9E+09,9E+09]];
    CONST robtarget Target_860_4:=[[134.290787496,463.946546704,207.763730725],[0.346644798,0.863442849,-0.330167952,0.159037585],[0,-1,-1,0],[9E+09,9E+09,9E+09,9E+09,9E+09,9E+09]];
    CONST robtarget Target_870_4:=[[128.460510378,466.81319345,200.163803963],[0.350650337,0.861528354,-0.328758141,0.16349716],[0,-1,-1,0],[9E+09,9E+09,9E+09,9E+09,9E+09,9E+09]];
    CONST robtarget Target_880_4:=[[122.139342056,469.489981416,192.89436352],[0.354641262,0.859578048,-0.327334668,0.167949902],[0,-1,-1,0],[9E+09,9E+09,9E+09,9E+09,9E+09,9E+09]];
    CONST robtarget Target_890_4:=[[115.343728174,471.962978711,185.990001638],[0.358617425,0.857592005,-0.32589759,0.17239564],[0,-1,-1,0],[9E+09,9E+09,9E+09,9E+09,9E+09,9E+09]];

    ! Identifier for the EGM correction
    LOCAL VAR egmident egm_id;
    ! The work object. Base Frame
    LOCAL PERS wobjdata egm_wobj := [FALSE, TRUE, "", [[0.0, 0.0, 0.0],[1.0, 0.0, 0.0, 0.0]], [[0.0, 0.0, 0.0],[1.0, 0.0, 0.0, 0.0]]];
    ! Limits for convergence
    ! Orientation: +-0.1 degrees
    LOCAL CONST egm_minmax egm_condition_orient := [-0.1, 0.1];
    
    VAR num state_id := 0;
    PROC main()
        MoveJ Target_260,v50,fine,tool0\WObj:=wobj0;
        Path_20;
        MoveJ Target_890_4,v50,fine,tool0\WObj:=wobj0;
        Path_20_3;
    ENDPROC
    PROC Path_20()
        MoveL Target_260,v100,z5,tool0\WObj:=wobj0;
        MoveL Target_270,v100,z5,tool0\WObj:=wobj0;
        MoveL Target_280,v100,z5,tool0\WObj:=wobj0;
        MoveL Target_290,v100,z5,tool0\WObj:=wobj0;
        MoveL Target_300,v100,z5,tool0\WObj:=wobj0;
        MoveL Target_310,v100,z5,tool0\WObj:=wobj0;
        MoveL Target_320,v100,z5,tool0\WObj:=wobj0;
        MoveL Target_330,v100,z5,tool0\WObj:=wobj0;
        MoveL Target_340,v100,z5,tool0\WObj:=wobj0;
        MoveL Target_350,v100,z5,tool0\WObj:=wobj0;
        MoveL Target_360,v100,z5,tool0\WObj:=wobj0;
        MoveL Target_370,v100,z5,tool0\WObj:=wobj0;
        MoveL Target_380,v100,z5,tool0\WObj:=wobj0;
        MoveL Target_390,v100,z5,tool0\WObj:=wobj0;
        MoveL Target_400,v100,z5,tool0\WObj:=wobj0;
        MoveL Target_410,v100,z5,tool0\WObj:=wobj0;
        MoveL Target_420,v100,z5,tool0\WObj:=wobj0;
        MoveL Target_430,v100,z5,tool0\WObj:=wobj0;
        MoveL Target_440,v100,z5,tool0\WObj:=wobj0;
        MoveL Target_450,v100,z5,tool0\WObj:=wobj0;
        MoveL Target_460,v100,z5,tool0\WObj:=wobj0;
        MoveL Target_470,v100,z5,tool0\WObj:=wobj0;
        MoveL Target_480,v100,z5,tool0\WObj:=wobj0;
        MoveL Target_490,v100,z5,tool0\WObj:=wobj0;
        MoveL Target_500,v100,z5,tool0\WObj:=wobj0;
        MoveL Target_510,v100,z5,tool0\WObj:=wobj0;
        MoveL Target_520,v100,z5,tool0\WObj:=wobj0;
        MoveL Target_530,v100,z5,tool0\WObj:=wobj0;
        MoveL Target_540,v100,z5,tool0\WObj:=wobj0;
        MoveL Target_550,v100,z5,tool0\WObj:=wobj0;
        MoveL Target_560,v100,z5,tool0\WObj:=wobj0;
        MoveL Target_570,v100,z5,tool0\WObj:=wobj0;
        MoveL Target_580,v100,z5,tool0\WObj:=wobj0;
        MoveL Target_590,v100,z5,tool0\WObj:=wobj0;
        MoveL Target_600,v100,z5,tool0\WObj:=wobj0;
        MoveL Target_610,v100,z5,tool0\WObj:=wobj0;
        MoveL Target_620,v100,z5,tool0\WObj:=wobj0;
        MoveL Target_630,v100,z5,tool0\WObj:=wobj0;
        MoveL Target_640,v100,z5,tool0\WObj:=wobj0;
        MoveL Target_650,v100,z5,tool0\WObj:=wobj0;
        MoveL Target_660,v100,z5,tool0\WObj:=wobj0;
        MoveL Target_670,v100,z5,tool0\WObj:=wobj0;
        MoveL Target_680,v100,z5,tool0\WObj:=wobj0;
        MoveL Target_690,v100,z5,tool0\WObj:=wobj0;
        MoveL Target_700,v100,z5,tool0\WObj:=wobj0;
        MoveL Target_710,v100,z5,tool0\WObj:=wobj0;
        MoveL Target_720,v100,z5,tool0\WObj:=wobj0;
        MoveL Target_730,v100,z5,tool0\WObj:=wobj0;
        MoveL Target_740,v100,z5,tool0\WObj:=wobj0;
        MoveL Target_750,v100,z5,tool0\WObj:=wobj0;
        MoveL Target_760,v100,z5,tool0\WObj:=wobj0;
        MoveL Target_770,v100,z5,tool0\WObj:=wobj0;
        MoveL Target_780,v100,z5,tool0\WObj:=wobj0;
        MoveL Target_790,v100,z5,tool0\WObj:=wobj0;
        MoveL Target_800,v100,z5,tool0\WObj:=wobj0;
        MoveL Target_810,v100,z5,tool0\WObj:=wobj0;
        MoveL Target_820,v100,z5,tool0\WObj:=wobj0;
        MoveL Target_830,v100,z5,tool0\WObj:=wobj0;
        MoveL Target_840,v100,z5,tool0\WObj:=wobj0;
        MoveL Target_850,v100,z5,tool0\WObj:=wobj0;
        MoveL Target_860,v100,z5,tool0\WObj:=wobj0;
        MoveL Target_870,v100,z5,tool0\WObj:=wobj0;
        MoveL Target_880,v100,z5,tool0\WObj:=wobj0;
    ENDPROC
    PROC Path_20_3()
        MoveL Target_890_4,v100,z5,tool0\WObj:=wobj0;
        MoveL Target_880_4,v100,z5,tool0\WObj:=wobj0;
        MoveL Target_870_4,v100,z5,tool0\WObj:=wobj0;
        MoveL Target_860_4,v100,z5,tool0\WObj:=wobj0;
        MoveL Target_850_4,v100,z5,tool0\WObj:=wobj0;
        MoveL Target_840_4,v100,z5,tool0\WObj:=wobj0;
        MoveL Target_830_4,v100,z5,tool0\WObj:=wobj0;
        MoveL Target_820_4,v100,z5,tool0\WObj:=wobj0;
        MoveL Target_810_4,v100,z5,tool0\WObj:=wobj0;
        MoveL Target_800_4,v100,z5,tool0\WObj:=wobj0;
        MoveL Target_790_4,v100,z5,tool0\WObj:=wobj0;
        MoveL Target_780_4,v100,z5,tool0\WObj:=wobj0;
        MoveL Target_770_4,v100,z5,tool0\WObj:=wobj0;
        MoveL Target_760_4,v100,z5,tool0\WObj:=wobj0;
        MoveL Target_750_4,v100,z5,tool0\WObj:=wobj0;
        MoveL Target_740_4,v100,z5,tool0\WObj:=wobj0;
        MoveL Target_730_4,v100,z5,tool0\WObj:=wobj0;
        MoveL Target_720_4,v100,z5,tool0\WObj:=wobj0;
        MoveL Target_710_4,v100,z5,tool0\WObj:=wobj0;
        MoveL Target_700_4,v100,z5,tool0\WObj:=wobj0;
        MoveL Target_690_4,v100,z5,tool0\WObj:=wobj0;
        MoveL Target_680_4,v100,z5,tool0\WObj:=wobj0;
        MoveL Target_670_4,v100,z5,tool0\WObj:=wobj0;
        MoveL Target_660_4,v100,z5,tool0\WObj:=wobj0;
        MoveL Target_650_4,v100,z5,tool0\WObj:=wobj0;
        MoveL Target_640_4,v100,z5,tool0\WObj:=wobj0;
        MoveL Target_630_4,v100,z5,tool0\WObj:=wobj0;
        MoveL Target_620_4,v100,z5,tool0\WObj:=wobj0;
        MoveL Target_610_4,v100,z5,tool0\WObj:=wobj0;
        MoveL Target_600_4,v100,z5,tool0\WObj:=wobj0;
    ENDPROC
ENDMODULE